src/assets/logoWhite.svg

<svg width="265" height="40" viewBox="0 0 265 40" fill="none" xmlns="http://www.w3.org/2000/svg">
<path d="M20.8098 7.61609C20.8098 9.82604 19.8425 11.8162 18.2972 13.2081L22.2787 15.9415V20.9506H18.381C18.569 23.2725 19.5992 25.0834 22.0827 27.6231C24.7458 30.3465 26.4407 32.5801 26.4407 32.5801V40H13.2203H0V32.5801C0 32.5801 1.69492 30.3465 4.35801 27.6231C6.84148 25.0834 7.8717 23.2725 8.05967 20.9506H4.16196V15.9415L8.14343 13.2081C6.59817 11.8162 5.63088 9.82604 5.63088 7.61609C5.63088 3.48749 8.81356 0 13.2203 0C17.6271 0 20.8098 3.48749 20.8098 7.61609Z" fill="#A79DF3"/>
<path d="M5.63088 7.61609C5.63088 9.82604 6.59817 11.8162 8.14343 13.2081L4.16196 15.9415V20.9506H8.05967C7.8717 23.2725 6.84148 25.0834 4.35801 27.6231C1.69492 30.3465 0 32.5801 0 32.5801V40H13.2203V0C8.81356 0 5.63088 3.48749 5.63088 7.61609Z" fill="#464BFF"/>
<path fill-rule="evenodd" clip-rule="evenodd" d="M164.15 7.27295V39.3323H173.044V27.4436C173.044 26.6273 173.17 25.9223 173.422 25.3286C173.674 24.7349 174.06 24.2822 174.579 23.9705C175.098 23.6588 175.757 23.5104 176.558 23.5253C177.714 23.5401 178.603 23.9112 179.226 24.6384C179.849 25.3509 180.16 26.2859 180.16 27.4436V39.3323H189.055V24.9501C189.055 23.2581 188.691 21.6997 187.965 20.2748C187.239 18.8351 186.142 17.6848 184.674 16.824C183.221 15.9483 181.39 15.5104 179.182 15.5104C177.492 15.5104 175.98 15.8815 174.645 16.6236C174.08 16.9319 173.546 17.275 173.044 17.6527V7.27295H164.15ZM230.685 39.9557C228.387 39.9557 226.312 39.696 224.458 39.1765C222.62 38.6422 221.004 37.8778 219.611 36.8834L222.19 30.9168C223.554 31.6886 224.977 32.3045 226.46 32.7646C227.957 33.2248 229.336 33.4548 230.596 33.4548C231.559 33.4548 232.278 33.3583 232.753 33.1654C233.242 32.9576 233.486 32.6533 233.486 32.2526C233.486 31.9112 233.257 31.6737 232.797 31.5402C232.338 31.3917 231.396 31.2136 229.973 31.0058C226.727 30.5309 224.34 29.6552 222.813 28.3787C221.301 27.1023 220.545 25.3509 220.545 23.1246C220.545 21.5365 220.982 20.1561 221.857 18.9836C222.731 17.811 223.94 16.9057 225.481 16.2674C227.023 15.6144 228.802 15.2878 230.818 15.2878C232.775 15.2878 234.635 15.5476 236.399 16.0671C238.163 16.5717 239.668 17.2619 240.913 18.1376L238.423 24.1042C237.756 23.6441 237.007 23.2433 236.177 22.9019C235.347 22.5457 234.494 22.2711 233.62 22.0782C232.745 21.8852 231.915 21.7888 231.129 21.7888C230.284 21.7888 229.61 21.8852 229.106 22.0782C228.617 22.2563 228.372 22.516 228.372 22.8574C228.372 23.1839 228.565 23.4288 228.95 23.5921C229.35 23.7554 230.284 23.9854 231.752 24.2823C235.221 24.965 237.674 25.8852 239.112 27.0429C240.55 28.1858 241.269 29.8036 241.269 31.8964C241.269 33.5142 240.817 34.9316 239.913 36.1487C239.023 37.3509 237.785 38.286 236.199 38.9539C234.613 39.6218 232.775 39.9557 230.685 39.9557ZM254.311 39.9557C252.013 39.9557 249.938 39.696 248.085 39.1765C246.246 38.6422 244.63 37.8778 243.237 36.8834L245.816 30.9168C247.18 31.6886 248.603 32.3045 250.086 32.7646C251.583 33.2248 252.962 33.4548 254.222 33.4548C255.185 33.4548 255.904 33.3583 256.379 33.1654C256.868 32.9576 257.112 32.6533 257.112 32.2526C257.112 31.9112 256.883 31.6737 256.423 31.5402C255.964 31.3917 255.022 31.2136 253.599 31.0058C250.353 30.5309 247.966 29.6552 246.439 28.3787C244.927 27.1023 244.171 25.3509 244.171 23.1246C244.171 21.5365 244.608 20.1561 245.483 18.9836C246.357 17.811 247.566 16.9057 249.107 16.2674C250.649 15.6144 252.428 15.2878 254.444 15.2878C256.401 15.2878 258.261 15.5476 260.025 16.0671C261.789 16.5717 263.294 17.2619 264.539 18.1376L262.049 24.1042C261.382 23.6441 260.633 23.2433 259.803 22.9019C258.973 22.5457 258.12 22.2711 257.246 22.0782C256.371 21.8852 255.541 21.7888 254.755 21.7888C253.91 21.7888 253.236 21.8852 252.732 22.0782C252.243 22.2563 251.998 22.516 251.998 22.8574C251.998 23.1839 252.191 23.4288 252.576 23.5921C252.976 23.7554 253.91 23.9854 255.378 24.2823C258.847 24.965 261.3 25.8852 262.738 27.0429C264.176 28.1858 264.895 29.8036 264.895 31.8964C264.895 33.5142 264.443 34.9316 263.539 36.1487C262.649 37.3509 261.411 38.286 259.825 38.9539C258.239 39.6218 256.401 39.9557 254.311 39.9557ZM198.78 38.4641C200.722 39.4882 202.99 40.0003 205.584 40.0003C206.77 40.0003 208.03 39.8667 209.365 39.5996C210.699 39.3472 211.951 39.0059 213.123 38.5754C214.294 38.145 215.22 37.67 215.902 37.1506L213.323 31.273C212.122 31.9854 210.914 32.5049 209.698 32.8315C208.483 33.158 207.171 33.3213 205.762 33.3213C204.799 33.3213 203.939 33.1951 203.183 32.9428C202.427 32.6756 201.819 32.312 201.36 31.8519C200.915 31.3918 200.663 30.8574 200.604 30.2489H217.281C217.711 28.1413 217.733 26.197 217.347 24.4159C216.962 22.62 216.236 21.0615 215.168 19.7406C214.101 18.4047 212.745 17.3658 211.099 16.6237C209.468 15.8816 207.601 15.5105 205.496 15.5105C203.613 15.5105 201.886 15.8073 200.314 16.401C198.758 16.9947 197.402 17.8333 196.245 18.9168C195.104 20.0003 194.214 21.2916 193.577 22.7906C192.954 24.2749 192.643 25.9149 192.643 27.7109C192.643 30.1747 193.177 32.3268 194.244 34.1673C195.326 36.0077 196.838 37.44 198.78 38.4641ZM208.92 24.4604H201.182C201.256 23.6589 201.663 23.0059 202.405 22.5012C203.161 21.9966 204.102 21.7443 205.229 21.7443C206.326 21.7443 207.215 21.9966 207.897 22.5012C208.579 23.0059 208.92 23.6589 208.92 24.4604ZM139.68 38.0411C142.171 39.3472 145.032 40.0002 148.263 40.0002C151.11 40.0002 153.563 39.644 155.624 38.9316C157.684 38.2192 159.411 37.3286 160.805 36.26L156.713 28.7349C155.513 29.5958 154.252 30.2266 152.933 30.6273C151.629 31.0281 150.339 31.2284 149.064 31.2284C147.404 31.2284 145.988 30.9316 144.817 30.3379C143.646 29.7294 142.749 28.8685 142.126 27.7553C141.504 26.6422 141.192 25.3064 141.192 23.7479C141.192 22.6051 141.363 21.5735 141.704 20.6533C142.045 19.7331 142.541 18.9464 143.194 18.2934C143.861 17.6403 144.676 17.1431 145.64 16.8017C146.603 16.4455 147.715 16.2674 148.975 16.2674C150.383 16.2674 151.658 16.49 152.8 16.9353C153.956 17.3657 154.934 18.0188 155.735 18.8945L160.138 11.503C158.626 10.2266 156.98 9.23958 155.201 8.54199C153.422 7.8444 151.154 7.49561 148.397 7.49561C145.981 7.49561 143.757 7.89635 141.726 8.69783C139.695 9.48447 137.931 10.6051 136.434 12.0596C134.951 13.5142 133.802 15.2433 132.987 17.247C132.172 19.2507 131.764 21.4622 131.764 23.8815C131.764 27.1913 132.461 30.0559 133.854 32.4752C135.263 34.8796 137.205 36.7349 139.68 38.0411Z" fill="white"/>
<path fill-rule="evenodd" clip-rule="evenodd" d="M119.791 7.27295V39.3323H123.082V7.27295H119.791ZM97.9866 38.4418C99.7211 39.4807 101.685 40.0002 103.879 40.0002C105.54 40.0002 107.066 39.7034 108.46 39.1097C109.868 38.5011 111.084 37.67 112.107 36.6162C113.13 35.5475 113.923 34.323 114.486 32.9427C115.064 31.5475 115.353 30.0781 115.353 28.5345C115.353 26.4566 114.857 24.5494 113.863 22.8128C112.87 21.0614 111.506 19.6662 109.772 18.6273C108.052 17.5883 106.088 17.0688 103.879 17.0688C102.234 17.0688 100.714 17.3731 99.3208 17.9816C97.9273 18.5753 96.7118 19.4065 95.6741 20.4752C94.6364 21.529 93.8285 22.746 93.2503 24.1264C92.687 25.5067 92.4053 26.9761 92.4053 28.5345C92.4053 30.6124 92.9019 32.5271 93.8952 34.2785C94.8884 36.015 96.2522 37.4028 97.9866 38.4418ZM108.06 35.926C106.844 36.6087 105.451 36.9501 103.879 36.9501C102.308 36.9501 100.914 36.6087 99.6988 35.926C98.4981 35.2284 97.5493 34.2562 96.8526 33.0095C96.1559 31.7479 95.8075 30.2562 95.8075 28.5345C95.8075 26.8128 96.1484 25.3212 96.8304 24.0596C97.5271 22.798 98.4832 21.8258 99.6988 21.1431C100.914 20.4603 102.308 20.1189 103.879 20.1189C105.451 20.1189 106.844 20.4603 108.06 21.1431C109.275 21.8258 110.224 22.798 110.906 24.0596C111.603 25.3212 111.951 26.8128 111.951 28.5345C111.951 30.2562 111.603 31.7479 110.906 33.0095C110.224 34.2562 109.275 35.2284 108.06 35.926ZM78.2328 40.0002C76.0389 40.0002 74.0746 39.4807 72.3402 38.4418C70.6058 37.4028 69.242 36.015 68.2487 34.2785C67.2555 32.5271 66.7589 30.6124 66.7589 28.5345C66.7589 26.9761 67.0406 25.5067 67.6039 24.1264C68.182 22.746 68.99 21.529 70.0276 20.4752C71.0653 19.4065 72.2809 18.5753 73.6744 17.9816C75.0679 17.3731 76.5873 17.0688 78.2328 17.0688C80.4416 17.0688 82.4058 17.5883 84.1254 18.6273C85.8599 19.6662 87.2237 21.0614 88.2169 22.8128C89.2101 24.5494 89.7067 26.4566 89.7067 28.5345C89.7067 30.0781 89.4177 31.5475 88.8395 32.9427C88.2762 34.323 87.4831 35.5475 86.4603 36.6162C85.4374 37.67 84.2218 38.5011 82.8135 39.1097C81.42 39.7034 79.8931 40.0002 78.2328 40.0002ZM78.2328 36.9501C79.8042 36.9501 81.1977 36.6087 82.4132 35.926C83.6288 35.2284 84.5776 34.2562 85.2595 33.0095C85.9562 31.7479 86.3046 30.2562 86.3046 28.5345C86.3046 26.8128 85.9562 25.3212 85.2595 24.0596C84.5776 22.798 83.6288 21.8258 82.4132 21.1431C81.1977 20.4603 79.8042 20.1189 78.2328 20.1189C76.6615 20.1189 75.268 20.4603 74.0524 21.1431C72.8368 21.8258 71.8807 22.798 71.1839 24.0596C70.502 25.3212 70.1611 26.8128 70.1611 28.5345C70.1611 30.2562 70.5094 31.7479 71.2062 33.0095C71.9029 34.2562 72.8517 35.2284 74.0524 35.926C75.268 36.6087 76.6615 36.9501 78.2328 36.9501ZM44.8878 37.9743C47.2893 39.3249 50.0985 40.0002 53.3154 40.0002C55.5242 40.0002 57.5551 39.7108 59.4081 39.132C61.276 38.5383 62.9807 37.6329 64.5225 36.4158L62.9215 33.5216C61.6169 34.6644 60.2012 35.4882 58.6743 35.9928C57.1623 36.4826 55.5612 36.7275 53.8713 36.7275C51.2326 36.7275 48.9348 36.2155 46.978 35.1913C45.0361 34.1672 43.5314 32.6904 42.4641 30.7609C41.3967 28.8166 40.8631 26.4641 40.8631 23.7034C40.8631 21.6997 41.1595 19.9038 41.7525 18.3156C42.3603 16.7127 43.2201 15.3546 44.3319 14.2414C45.4586 13.1134 46.8001 12.2451 48.3567 11.6366C49.9281 11.0281 51.6773 10.7238 53.6045 10.7238C55.2351 10.7238 56.7324 10.9464 58.0962 11.3917C59.46 11.837 60.6682 12.5197 61.7207 13.4399L63.5885 10.6793C62.373 9.67 60.9128 8.89078 59.208 8.34162C57.5032 7.77761 55.5464 7.49561 53.3376 7.49561C51.0102 7.49561 48.8681 7.89635 46.9113 8.69783C44.9694 9.49932 43.2794 10.6348 41.8415 12.1041C40.4183 13.5587 39.3139 15.273 38.5283 17.247C37.7426 19.2062 37.3497 21.3657 37.3497 23.7257C37.3497 26.9761 38.0094 29.8258 39.3288 32.2748C40.6481 34.7238 42.5011 36.6236 44.8878 37.9743Z" fill="white"/>
</svg>

<svg xmlns="http://www.w3.org/2000/svg" width="265" height="40" fill="none"><path fill="#A79DF3" d="M20.81 7.616c0 2.21-.967 4.2-2.513 5.592l3.982 2.733v5.01H18.38c.188 2.322 1.218 4.132 3.702 6.672 2.663 2.723 4.358 4.957 4.358 4.957V40H0v-7.42s1.695-2.233 4.358-4.957c2.483-2.54 3.514-4.35 3.702-6.672H4.162v-5.01l3.981-2.733c-1.545-1.392-2.512-3.382-2.512-5.592C5.63 3.487 8.814 0 13.22 0s7.589 3.487 7.589 7.616"/><path fill="#464BFF" d="M5.63 7.616c0 2.21.968 4.2 2.513 5.592l-3.981 2.733v5.01H8.06c-.188 2.322-1.219 4.132-3.702 6.672C1.695 30.346 0 32.58 0 32.58V40h13.22V0C8.814 0 5.63 3.487 5.63 7.616"/><path fill="#fff" fill-rule="evenodd" d="M164.15 7.273v32.06h8.894v-11.89q0-1.223.378-2.114t1.157-1.358q.778-.468 1.979-.446 1.734.023 2.668 1.113.934 1.07.934 2.806v11.888h8.895V24.95q0-2.538-1.09-4.675-1.089-2.16-3.291-3.451-2.18-1.314-5.492-1.314-2.535 0-4.537 1.114-.848.462-1.601 1.029V7.273zm66.535 32.683q-3.446 0-6.227-.78-2.757-.8-4.847-2.293l2.579-5.966a21.7 21.7 0 0 0 4.27 1.848q2.246.69 4.136.69 1.444 0 2.157-.29.733-.311.733-.912 0-.513-.689-.713-.689-.222-2.824-.534-4.87-.712-7.16-2.627-2.268-1.915-2.268-5.254 0-2.383 1.312-4.141t3.624-2.717q2.313-.98 5.337-.98 2.935 0 5.581.78 2.646.757 4.514 2.07l-2.49 5.967a12 12 0 0 0-2.246-1.202q-1.246-.534-2.557-.824a11.6 11.6 0 0 0-2.491-.29q-1.267 0-2.023.29-.734.267-.734.78 0 .488.578.734.6.244 2.802.69 5.203 1.025 7.36 2.76 2.157 1.716 2.157 4.854 0 2.427-1.356 4.253-1.335 1.803-3.714 2.805t-5.514 1.002m23.626 0q-3.447 0-6.226-.78-2.758-.8-4.848-2.293l2.579-5.966a21.7 21.7 0 0 0 4.27 1.848q2.246.69 4.136.69 1.445 0 2.157-.29.733-.311.733-.912 0-.513-.689-.713-.689-.222-2.824-.534-4.87-.712-7.16-2.627-2.268-1.915-2.268-5.254 0-2.383 1.312-4.141t3.624-2.717q2.313-.98 5.337-.98 2.935 0 5.581.78 2.646.757 4.514 2.07l-2.49 5.967a12 12 0 0 0-2.246-1.202q-1.245-.534-2.557-.824a11.6 11.6 0 0 0-2.491-.29q-1.267 0-2.023.29-.734.267-.734.78 0 .488.578.734.6.244 2.802.69 5.203 1.025 7.36 2.76 2.157 1.716 2.157 4.854 0 2.427-1.356 4.253-1.335 1.803-3.714 2.805t-5.514 1.002m-55.531-1.492Q201.693 40 205.584 40q1.779 0 3.781-.4a23.6 23.6 0 0 0 3.758-1.025q1.756-.645 2.779-1.424l-2.579-5.878q-1.801 1.069-3.625 1.558-1.822.49-3.936.49-1.445 0-2.579-.378-1.134-.4-1.823-1.091a2.62 2.62 0 0 1-.756-1.603h16.677q.645-3.162.066-5.833-.577-2.694-2.179-4.675-1.6-2.004-4.069-3.117-2.446-1.113-5.603-1.113-2.824 0-5.182.89-2.334.89-4.069 2.516a11.5 11.5 0 0 0-2.668 3.874q-.934 2.226-.934 4.92 0 3.696 1.601 6.456 1.623 2.76 4.536 4.297m10.14-14.004h-7.738q.11-1.202 1.223-1.959 1.134-.756 2.824-.757 1.645 0 2.668.757t1.023 1.96m-69.24 13.581q3.736 1.96 8.583 1.96 4.27 0 7.361-1.07 3.09-1.068 5.181-2.671l-4.092-7.525q-1.8 1.291-3.78 1.892a13.1 13.1 0 0 1-3.869.601q-2.49 0-4.247-.89-1.757-.914-2.691-2.583t-.934-4.007q0-1.715.512-3.095a6.5 6.5 0 0 1 1.49-2.36q1-.98 2.446-1.491 1.445-.535 3.335-.535 2.112 0 3.825.668a7.4 7.4 0 0 1 2.935 1.96l4.403-7.392a17.6 17.6 0 0 0-4.937-2.961q-2.669-1.046-6.804-1.046-3.624 0-6.671 1.202-3.046 1.18-5.292 3.362-2.225 2.181-3.447 5.187-1.223 3.006-1.223 6.634 0 4.965 2.09 8.594 2.113 3.607 5.826 5.566M119.791 7.273v32.06h3.291V7.272zM97.987 38.442Q100.588 40 103.879 40q2.49 0 4.581-.89a11.2 11.2 0 0 0 3.647-2.494 11.6 11.6 0 0 0 2.379-3.673q.867-2.093.867-4.408 0-3.117-1.49-5.722a11.3 11.3 0 0 0-4.091-4.186q-2.58-1.558-5.893-1.558-2.468 0-4.558.913a11.1 11.1 0 0 0-3.647 2.493 11.5 11.5 0 0 0-2.424 3.651 11.6 11.6 0 0 0-.845 4.409q0 3.116 1.49 5.744a11.35 11.35 0 0 0 4.092 4.163m10.073-2.516q-1.823 1.024-4.181 1.024t-4.18-1.024q-1.801-1.047-2.846-2.916-1.045-1.893-1.045-4.475 0-2.583 1.022-4.475 1.045-1.893 2.869-2.917 1.823-1.024 4.18-1.024 2.358 0 4.181 1.024t2.846 2.917q1.045 1.892 1.045 4.475t-1.045 4.475a7.4 7.4 0 0 1-2.846 2.916M78.233 40q-3.29 0-5.893-1.558a11.35 11.35 0 0 1-4.091-4.163q-1.49-2.628-1.49-5.745 0-2.337.845-4.408a11.5 11.5 0 0 1 2.424-3.65 11.1 11.1 0 0 1 3.646-2.494q2.09-.913 4.559-.913 3.314 0 5.892 1.558a11.3 11.3 0 0 1 4.092 4.186q1.49 2.605 1.49 5.722a11.4 11.4 0 0 1-.867 4.408 11.6 11.6 0 0 1-2.38 3.673 11.2 11.2 0 0 1-3.646 2.494q-2.09.89-4.581.89m0-3.05q2.357 0 4.18-1.024a7.4 7.4 0 0 0 2.847-2.916q1.044-1.893 1.045-4.475 0-2.583-1.046-4.475-1.022-1.893-2.846-2.917-1.823-1.024-4.18-1.024-2.358 0-4.18 1.024-1.823 1.024-2.87 2.917-1.022 1.892-1.022 4.475t1.045 4.475q1.046 1.869 2.846 2.916 1.825 1.024 4.18 1.024m-33.345 1.024Q48.49 40 53.315 40q3.314 0 6.093-.868a16 16 0 0 0 5.114-2.716l-1.6-2.894q-1.957 1.714-4.248 2.47a15.5 15.5 0 0 1-4.803.736q-3.957 0-6.893-1.537a10.83 10.83 0 0 1-4.514-4.43q-1.6-2.916-1.6-7.058 0-3.006.889-5.387.91-2.404 2.579-4.075 1.69-1.692 4.025-2.604 2.356-.913 5.248-.913 2.445 0 4.491.668a10.3 10.3 0 0 1 3.625 2.048l1.868-2.76q-1.824-1.516-4.381-2.338-2.558-.846-5.87-.846-3.492 0-6.427 1.202a15 15 0 0 0-5.07 3.406q-2.134 2.182-3.313 5.143-1.178 2.94-1.178 6.479 0 4.875 1.979 8.549t5.559 5.7" clip-rule="evenodd"/></svg>
